X:1
T:Comfort, Comfort Now My People
T:Text: Isaiah 40:1-5; vers. Johannes G. Olearius, 1671; tr. Catherine Winkworth, 1863, alt. Tune: Louis Bourgeois, 1551; harm. Claude Goudinel, 1564
T:87 87 77 88 GENEVAN 42 www.hymnary.org/text/comfort_comfort_now_my_people
T:Comfort, Comfort Now My People
T:This hymn is in the public domain. You may freely use this score for personal and congregational worship. If you reproduce the score, please credit Hymnary.org as the source. 
T:This hymn is in the public domain. You may freely use this score for personal and congregational worship. If you reproduce the score, please credit Hymnary.org as the source. 
T:This hymn is in the public domain. You may freely use this score for personal and congregational worship. If you reproduce the score, please credit Hymnary.org as the source. 
Z:This hymn is in the public domain. You may freely use this score for personal and congregational worship. If you reproduce the score, please credit Hymnary.org as the source.
%%score ( 1 2 ) ( 3 4 )
L:1/8
M:6/4
K:F
V:1 treble nm="SOPRANO ALTO" snm="S. A."
V:2 treble 
V:3 bass nm="TENOR BASS" snm="T. B."
V:4 bass 
V:1
"^1""^2""^3" F4 G2 A4 G2 | F2 E2 D4 C4 | F4 G2 A4 B2 |[M:8/4] A4 G4 F8 |[M:6/4] F4 G2 A4 G2 | %5
w: Com- fort, com- fort|now my peo- ple;|speak of peace: so|says our God.|Com- fort those who|
w: For the her- ald's|voice is cry- ing|in the des- ert|far and near,|call- ing all to|
w: Then make straight what|long was crook- ed;|make the rough- er|plac- es plain.|let your hearts be|
 F2 E2 D4 C4 | F4 G2 |1 A4 B2 |[M:8/4] A4 G4 F8 |[M:6/4] A4 A2 c4 B2 | A2 G2 A4 ||"^Page 2" c4 | %12
w: sit in dark- ness,|mourn- ing|un- der|sor- row's load.|Cry out to Je-|ru- sa- lem|of|
w: true re- pen- tance,|since the|king- dom|now is here.|Oh, that warn- ing|cry o- bey!|Now|
w: true and hum- ble,|as be-|fits his|ho- ly reign.|For the glo- ry|of the Lord|now|
 c2 d4 c2 B2 A2 | G8"^Comfort, Comfort Now My People" A4 | c2 B4 A2 | F2 G2 | A4 F4 c4 | %17
w: the peace that waits for|them; tell|her that her|sins I|cov- er and|
w: pre- pare for God a|way! Let|the val- leys|rise to|meet him and|
w: on earth is shed a-|broad, and|all flesh shall|see the|to- ken that|
 A2 B4 A2 G2 F2 | (F2 E2) F8 |] %19
w: her war- fare now is|o- * ver.|
w: the hills bow down to|greet * him.|
w: God's word is nev- er|bro- * ken.|
V:2
 C4 E2 F4 E2 | D2 C2 B,4 A,4 | C4 E2 F4 F2 |[M:8/4] F4 E4 C8 |[M:6/4] C4 E2 F4 E2 | D2 C2 B,4 A,4 | %6
 C4 E2 |1 F4 F2 |[M:8/4] F4 E4 C8 |[M:6/4] F4 F2 F4 F2 | F2 E2 F4 || F4 | F2 F4 F2 F2 F2 | E8 F4 | %14
 G2 G4 F2 | D2 C2 | C4 D4 C4 | F2 F4 F2 E2 A,2 | C4 C8 |] %19
V:3
 A,4 C2 C4 C2 | A,2 A,2 F,4 F,4 | A,4 C2 C4 D2 |[M:8/4] C4 C4 A,8 |[M:6/4] A,4 C2 C4 C2 | %5
 A,2 A,2 F,4 F,4 | A,4 C2 |1 C4 D2 |[M:8/4] C4 C4 A,8 |[M:6/4] C4 C2 C4 D2 | C2 C2 C4 || A,4 | %12
 A,2 B,4 C2 D2 C2 | C8 C4 | _E2 D4 D2 | A,2 G,2 | F,4 F,4 F,4 | C2 D4 C2 C2 F,2 | G,4 A,8 |] %19
V:4
 F,4 C,2 F,4 C,2 | D,2 A,,2 B,,4 F,,4 | F,4 C,2 F,4 B,,2 |[M:8/4] F,4 C,4 F,8 | %4
[M:6/4] F,4 C,2 F,4 C,2 | D,2 A,,2 B,,4 F,,4 | F,4 C,2 |1 F,4 B,,2 |[M:8/4] F,4 C,4 F,,8 | %9
[M:6/4] F,4 F,2 A,,4 B,,2 | F,2 C,2 F,4 || F,4 | F,2 B,,4 A,,2 B,,2 F,,2 | C,8 F,4 | C,2 G,4 D,2 | %15
 D,2 E,2 | F,4 B,,4 F,4 | F,2 B,,4 F,2 C,2 D,2 | C,4 F,,8 |] %19

